images/people/people-09.svg

<?xml version="1.0" standalone="no"?><!DOCTYPE svg PUBLIC "-//W3C//DTD SVG 1.1//EN" "http://www.w3.org/Graphics/SVG/1.1/DTD/svg11.dtd"><svg width="120px" height="192px" version="1.1" xmlns="http://www.w3.org/2000/svg" xmlns:xlink="http://www.w3.org/1999/xlink" xml:space="preserve" style="fill-rule:evenodd;clip-rule:evenodd;stroke-linejoin:round;stroke-miterlimit:1.41421;"><g><g id="people-09" transform="matrix(1,0,0,1,-1774,-48)"><g transform="matrix(1,0,0,1,0,-12)"><path d="M1843.49,231.02l0.943,6.871l-8.699,-0.172l-0.515,-7.384l8.271,0.685Z" style="fill:#ceab97;fill-rule:nonzero;"/></g><g transform="matrix(1,0,0,1,0,-12)"><path d="M1827.25,249.311l0.774,2.189l7.282,0l1.353,-9.981l-8.032,-1.266l-1.377,9.058Z" style="fill:#ceab97;fill-rule:nonzero;"/></g><g transform="matrix(1,0,0,1,0,-12)"><path d="M1827.32,125.405l2.834,-1.889l2.061,-5.839l4.757,1.357l1.51,3.709l3.262,1.632l-7.103,11.462l-7.321,-10.432Z" style="fill:#72594b;fill-rule:nonzero;"/></g><g transform="matrix(1,0,0,1,0,-12)"><path d="M1832.11,121.839l4.286,0l4.616,-5.935l-0.824,-12.694l-8.234,-1.375l-5.116,2.034l0.164,12.035l5.108,5.935Z" style="fill:#ceab97;fill-rule:nonzero;"/></g><g transform="matrix(1,0,0,1,0,-12)"><path d="M1829.46,102.05l0.43,-1.718l13.816,1.337l1.15,9.826l-4.277,0.258l-3.348,-6.827l-6.224,-0.901l-1.547,-1.975Z" style="fill:#2a2b2a;fill-rule:nonzero;"/></g><g transform="matrix(1,0,0,1,0,-12)"><path d="M1840.5,108.456l2.822,0.047l0.223,4.916l-2.879,-0.15l-0.166,-4.813Z" style="fill:#ceab97;fill-rule:nonzero;"/></g><g transform="matrix(1,0,0,1,0,-12)"><path d="M1831.05,104.024l-3.479,1.417l-0.641,6.182l-5.056,0.644l0.582,-8.142l7.5,-3.75l1.094,3.649Z" style="fill:#2a2b2a;fill-rule:nonzero;"/></g><g transform="matrix(1,0,0,1,0,-12)"><path d="M1827.21,109.125l-2.849,0.775l0.224,4.122l2.518,0.098l0.107,-4.995Z" style="fill:#ceab97;fill-rule:nonzero;"/></g><g transform="matrix(1,0,0,1,0,-12)"><path d="M1848.15,163.531l-4.661,67.489l-7.412,0l-1.201,-57.358l2.795,26.46l-1.079,41.46l-7.925,-1.288l-3.094,-39.927l-4.033,-36.322l26.61,-0.514Z" style="fill:#c1beba;fill-rule:nonzero;"/></g><g transform="matrix(1,0,0,1,0,-12)"><path d="M1835.62,172.625l2.512,29.545l-1.282,28.859l7.124,-7.237l2.709,-40.104l-11.063,-11.063Z" style="fill:#171817;fill-opacity:0.25;fill-rule:nonzero;"/></g><g transform="matrix(1,0,0,1,0,-12)"><path d="M1814.23,159.49l-2.349,5.768l0.451,7.992l2.654,-1.018l0.541,-6.748l-0.22,2.034l2.4,0.107l-0.872,-5.549l-2.605,-2.586Z" style="fill:#ceab97;fill-rule:nonzero;"/></g><g transform="matrix(1,0,0,1,0,-12)"><path d="M1854.34,159.768l1.776,4.479l-0.157,7.378l-2.899,-0.381l-0.588,-6.746l0.232,2.033l-2.494,0.344l0.837,-5.593l3.293,-1.514Z" style="fill:#ceab97;fill-rule:nonzero;"/></g><g transform="matrix(1,0,0,1,0,-12)"><path d="M1841.87,124.246l8.227,2.705l4.459,33.659l-3.606,0.601l-4.115,-29.624l1.373,31.942l-26.672,0.516l1.889,-29.709l-6.526,27.819l-3.306,-1.459l5.881,-31.856l7.841,-3.565l8.371,8.502l6.184,-9.531Z" style="fill:#ef9b75;fill-rule:nonzero;"/></g></g></g></svg>

<?xml version="1.0" encoding="UTF-8" standalone="no"?>
<!DOCTYPE svg PUBLIC "-//W3C//DTD SVG 1.1//EN" "http://www.w3.org/Graphics/SVG/1.1/DTD/svg11.dtd">
<svg width="100%" height="100%" viewBox="0 0 140 220" version="1.1" xmlns="http://www.w3.org/2000/svg" xmlns:xlink="http://www.w3.org/1999/xlink" xml:space="preserve" xmlns:serif="http://www.serif.com/" style="fill-rule:evenodd;clip-rule:evenodd;stroke-linejoin:round;stroke-miterlimit:2;">
    <g id="people-09" transform="matrix(1.27,0,0,1.27,-2259.18,-84.8)">
        <g transform="matrix(1,0,0,1,0,-12)">
            <path d="M1843.49,231.021L1844.43,237.892L1835.73,237.72L1835.22,230.336L1843.49,231.021Z" style="fill:rgb(206,171,151);fill-rule:nonzero;"/>
        </g>
        <g transform="matrix(1,0,0,1,0,-12)">
            <path d="M1827.25,249.311L1828.02,251.5L1835.3,251.5L1836.65,241.519L1828.62,240.253L1827.25,249.311Z" style="fill:rgb(206,171,151);fill-rule:nonzero;"/>
        </g>
        <g transform="matrix(1,0,0,1,0,-12)">
            <path d="M1827.32,125.405L1830.15,123.516L1832.21,117.677L1836.97,119.034L1838.48,122.743L1841.74,124.375L1834.64,135.837L1827.32,125.405Z" style="fill:rgb(114,89,75);fill-rule:nonzero;"/>
        </g>
        <g transform="matrix(1,0,0,1,0,-12)">
            <path d="M1832.11,121.839L1836.39,121.839L1841.01,115.904L1840.19,103.21L1831.95,101.835L1826.84,103.869L1827,115.904L1832.11,121.839Z" style="fill:rgb(206,171,151);fill-rule:nonzero;"/>
        </g>
        <g transform="matrix(1,0,0,1,0,-12)">
            <path d="M1829.46,102.05L1829.89,100.332L1843.71,101.669L1844.86,111.495L1840.58,111.753L1837.23,104.926L1831.01,104.025L1829.46,102.05Z" style="fill:rgb(42,43,42);fill-rule:nonzero;"/>
        </g>
        <g transform="matrix(1,0,0,1,0,-12)">
            <path d="M1840.5,108.456L1843.32,108.503L1843.54,113.419L1840.66,113.269L1840.5,108.456Z" style="fill:rgb(206,171,151);fill-rule:nonzero;"/>
        </g>
        <g transform="matrix(1,0,0,1,0,-12)">
            <path d="M1831.05,104.024L1827.57,105.441L1826.93,111.623L1821.88,112.267L1822.46,104.125L1829.96,100.375L1831.05,104.024Z" style="fill:rgb(42,43,42);fill-rule:nonzero;"/>
        </g>
        <g transform="matrix(1,0,0,1,0,-12)">
            <path d="M1827.21,109.125L1824.36,109.9L1824.58,114.022L1827.1,114.12L1827.21,109.125Z" style="fill:rgb(206,171,151);fill-rule:nonzero;"/>
        </g>
        <g transform="matrix(1,0,0,1,0,-12)">
            <path d="M1848.15,163.531L1843.49,231.02L1836.08,231.02L1834.87,173.662L1837.67,200.122L1836.59,241.582L1828.66,240.294L1825.57,200.367L1821.54,164.045L1848.15,163.531Z" style="fill:rgb(193,190,186);fill-rule:nonzero;"/>
        </g>
        <g transform="matrix(1,0,0,1,0,-12)">
            <path d="M1835.62,172.625L1838.14,202.17L1836.86,231.029L1843.98,223.792L1846.69,183.688L1835.62,172.625Z" style="fill:rgb(23,24,23);fill-opacity:0.25;fill-rule:nonzero;"/>
        </g>
        <g transform="matrix(1,0,0,1,0,-12)">
            <path d="M1814.23,159.49L1811.88,165.258L1812.33,173.25L1814.99,172.232L1815.53,165.484L1815.31,167.518L1817.71,167.625L1816.84,162.076L1814.23,159.49Z" style="fill:rgb(206,171,151);fill-rule:nonzero;"/>
        </g>
        <g transform="matrix(1,0,0,1,0,-12)">
            <path d="M1854.34,159.768L1856.12,164.247L1855.96,171.625L1853.06,171.244L1852.47,164.498L1852.7,166.531L1850.21,166.875L1851.05,161.282L1854.34,159.768Z" style="fill:rgb(206,171,151);fill-rule:nonzero;"/>
        </g>
        <g transform="matrix(1,0,0,1,0,-12)">
            <path d="M1841.87,124.246L1850.1,126.951L1854.56,160.61L1850.95,161.211L1846.84,131.587L1848.21,163.529L1821.54,164.045L1823.43,134.336L1816.9,162.155L1813.59,160.696L1819.48,128.84L1827.32,125.275L1835.69,133.777L1841.87,124.246Z" style="fill:rgb(239,155,117);fill-rule:nonzero;"/>
        </g>
    </g>
</svg>
